rospo-dark/16x16/actions/format-line-spacing-triple.svg

<svg height="16" viewBox="0 0 16 16" width="16" xmlns="http://www.w3.org/2000/svg"><path d="m5 2v1h-3v10h3v1h9v-3h-9v1h-2v-3h1v-2h-1v-3h2v1h9v-3z" fill="#d3dae3"/></svg>

<?xml version="1.0" encoding="UTF-8" standalone="no"?>
<svg xmlns="http://www.w3.org/2000/svg" width="22" height="22" viewBox="0 0 22 22">
 <defs>
  <style type="text/css" id="current-color-scheme">
   .ColorScheme-Text { color:#d3dae3; } .ColorScheme-Highlight { color:#5294e2; }
  </style>
 </defs>
 <path style="fill:currentColor;opacity:1" class="ColorScheme-Text" transform="translate(3 3)" d="M 5 2 L 5 3 L 2 3 L 2 13 L 5 13 L 5 14 L 14 14 L 14 11 L 5 11 L 5 12 L 3 12 L 3 9 L 4 9 L 4 7 L 3 7 L 3 4 L 5 4 L 5 5 L 14 5 L 14 2 L 5 2 z"/>
</svg>
